X:1
T:Meyer, LM
T:Meyer, LM
T:Lucy Jane Rider Meyer, 1910
T:Public Domain Courtesy of the Cyber Hymnal™
C:Lucy Jane Rider Meyer, 1910
Z:Public Domain
Z:Courtesy of the Cyber Hymnal™
%%score ( 1 2 ) ( 3 4 )
L:1/8
Q:1/4=105
M:4/4
K:A
V:1 treble 
V:2 treble 
V:3 bass 
V:4 bass 
V:1
 [CE]2 [CE][CE] E3 E | [^DF]2 [DF]2 E4 | [DG]2 [DF][DF] [CE]3 [Ec] | [EB]2 (cB) B2 =d2 | %4
 [Ec]2 [Ec][=Ge] (ed) ([Ec][DB]) | [CA]2 [FB]2 [^Ec]4 | [Fc]2 [Fc][Fe] (edc)[FB] | %7
 [EA]2 [EG]2 [EA]4 |] %8
V:2
 x4 E3 E | x4 E4 | x8 | x2 ^D2 E4 | x4 F2 x2 | x8 | x4 F3 x | x8 |] %8
V:3
 [A,,A,]2 [A,,A,][A,,A,] [A,,C]3 [A,,C] | [A,,^B,]2 [A,,B,]2 [A,,C]4 | %2
 [A,,E,]2 [A,,F,][A,,G,] [A,,A,]3 [A,,A,] | [B,,G,]2 [B,,A,]2 G,2 B,2 | A,2 A,[C,A,] [D,A,]2 G,2 | %5
 [F,A,]2 [D,F,]2 [C,G,]4 | [F,A,]2 [F,^A,][F,A,] B,2 [C,E][D,D] | [E,C]2 [E,D]2 [A,,C]4 |] %8
V:4
 x8 | x8 | x8 | x4 E,4 | A,2 A, x2 (E,^E,) x | x8 | x4 B, B,, x2 | x8 |] %8

